X:1
T:Haweis Fifth
T:C Major         Thomas Haweis, 1791
T:Thomas Haweis, 1791                 86. 86. (C. M.)
T:Transcribed from Carmina Christo, 1791
T:No Copyright.  Transcribed from Suffolk Harmony, 1786.
Z:No Copyright.  Transcribed from Suffolk Harmony, 1786.
%%score [ 1 2 3 4 ]
L:1/8
Q:1/4=80
M:2/4
K:C
V:1 treble nm="Tr." snm="Tr."
V:2 treble nm="C." snm="C."
V:3 treble-8 nm="T." snm="T."
V:4 bass nm="B." snm="B."
V:1
 c | c2 c2 | c3 c | cd G2 | G3 c | c2 c2 | f2 ed/c/ |{c} B3 B | c2 z c | d2 e2 | f>ed c |{c} B3 B | %12
w: 1. Be-|hold the|Lamb of|God, * who|bore Thy|bur- dens|of the * *|tree, And|paid in|blood the|dread- * * ful|score, The|
 c2 c2 | c2 Bc | B2 !fermata!z d | c2 c2 | c2 B2 | !fermata!c3 |] %18
w: ran- som|due for *|thee, The|ran- som|due for|thee.|
V:2
 E | E2 F2 | G3 A | GF ED | E3 G | F2 G2 | G2 G2 | G3 G | G2 z G | G2 G2 | G2 G2 | G3 G | FG GF | %13
w: 2. Look|to him,|till the|sight * en- *|dears Thy|Sa- vior|to thy|heart; His|pier- ced|feet be-|dew with|tears, Now|from * his *|
w: 3. Look|to him,|till his|dy- * ing *|love Thy|eve- ry|thought con-|trol; Its|vast con-|strai- ning|in- fluence|prove O'er|bo- * dy, *|
 FG G2 | G2 !fermata!z G | G2 FA | G2 F2 | !fermata!E3 |] %18
w: cross * de-|part, Nor|from his *|cross de-|part.|
w: spi- * rit,|soul, O'er|bo- dy, *|spi- rit,|soul.|
V:3
 G | c2 d2 | e3 f | ed cB | c3 G | A2 G2 | B2 cd/e/ |{e} d3 G | FE AG | B2 c2 | d>ef e | d3 G | %12
w: 4. Look|to him|as the|race * you *|run, Your|ne- ver|fai- ling * *|friend; Fi-|nish * he *|will the|work * * be-|gun And|
 AG cB | dc fe |{e} d2 !fermata!z G | EG cf | e2 d2 | !fermata!c3 |] %18
w: grace * in *|glo- * ry *|end, And|grace * in *|glo- ry|end.|
V:4
 C, | C,2 G,,2 | C,2 F,2 | G,3 G,, | C,2 E,2 | F,2 E,2 | D,2 C,2 | G,3 G,, | C,2 F,E, | D,2 C,2 | %10
 G,,2 G,,2 | G,,2 G,2 | F,E, E,D, | F,E, D,C, | %14
 G,2 !fermata!z"_________________________________________________________________________\nThis tune, titled Hymn Five by Haweis, has been called Behold the Lamb and Sacrament." G, | %15
 CB, A,F, | G,2 G,,2 | !fermata!C,3 |] %18

